images/SEO_for_beginners.svg

<svg xmlns="http://www.w3.org/2000/svg" viewBox="0 0 500 500"><path d="M419.62.4h-333a87 87 0 0 0-87 87v333.41a79.59 79.59 0 0 0 79.59 79.59h420.41v-420a80 80 0 0 0-80-80z" fill="#54b9dd"/><path d="M86.65.4a87 87 0 0 0-87 87v333.41a79.59 79.59 0 0 0 79.56 79.59h170.41V.4z" fill="#98d5eb"/><path fill="#7b1e50" d="M196.56 249.37h-44.2v209.89l44.2 11.12V249.37z"/><path fill="#a4286a" d="M195.69 249.37H416.7v221.01H195.69z"/><path d="M403.86 457.54H208.53V262.21h195.33zM216 450.07h180.39V269.68H216z" fill="#c87ea6"/><path d="M278.58 413.15v13.59c8.42-.33 15-3.13 20.56-8.73 5.75-5.78 10.69-14.79 15.54-28.35l36-96.53h-17.4l-29 80.6-14.43-45.2h-15.97l21.18 54.4a22.32 22.32 0 0 1 0 16.28c-2.15 5.52-5.98 12.01-16.48 13.94z" fill="#fff" opacity=".8"/><path fill="#77b227" d="M79.97 29h221.01v221.01H79.97z"/><path d="M92.8 237.21V43l195.36-1.2V236zm7.5-186.78v179.24l180.36-1.09V49.35z" fill="#a1d968"/><path fill="#4f8a0a" d="M344.64 42.34L300.44 29v221.01h44.2V42.34z"/><path d="M209.57 170.62h-1.54a52.29 52.29 0 1 1 53.79-50.75 52.36 52.36 0 0 1-52.25 50.75zm0-92.43a40.14 40.14 0 0 0-1.15 80.26h1.18a40.14 40.14 0 0 0 1.15-80.26z" fill="#fff"/><path d="M124.81 209.61a8.32 8.32 0 0 1-5.69-14.4l42.06-39.36A8.33 8.33 0 0 1 172.56 168l-42.06 39.37a8.31 8.31 0 0 1-5.69 2.24z" fill="#fff"/></svg>

<svg xmlns="http://www.w3.org/2000/svg" viewBox="0 0 500 500"><title>Intro_basic_SEO</title><path d="M419.62.4h-333a87,87,0,0,0-87,87V420.81A79.59,79.59,0,0,0,79.21,500.4H499.62V80.4A80,80,0,0,0,419.62.4Z" fill="#54b9dd"/><path d="M86.65.4a87,87,0,0,0-87,87V420.81A79.59,79.59,0,0,0,79.21,500.4H249.62V.4Z" fill="#98d5eb"/><polygon points="196.56 249.37 152.36 249.37 152.36 459.26 196.56 470.38 196.56 249.37" fill="#7b1e50"/><rect x="195.69" y="249.37" width="221.01" height="221.01" fill="#a4286a"/><path d="M403.86,457.54H208.53V262.21H403.86ZM216,450.07H396.39V269.68H216Z" fill="#c87ea6"/><g opacity="0.8"><path d="M278.58,413.15v13.59c8.42-.33,15-3.13,20.56-8.73,5.75-5.78,10.69-14.79,15.54-28.35l36-96.53H333.28l-29,80.6-14.43-45.2H273.88l21.18,54.4a22.32,22.32,0,0,1,0,16.28C292.91,404.73,289.08,411.22,278.58,413.15Z" fill="#fff"/></g><rect x="79.97" y="29" width="221.01" height="221.01" fill="#77b227"/><path d="M92.8,237.21V43L288.16,41.8V236Zm7.5-186.78V229.67l180.36-1.09V49.35Z" fill="#a1d968"/><polygon points="344.64 42.34 300.44 29 300.44 250.01 344.64 250.01 344.64 42.34" fill="#4f8a0a"/><path d="M209.57,170.62c-.52,0-1,0-1.54,0a52.29,52.29,0,1,1,53.79-50.75h0A52.36,52.36,0,0,1,209.57,170.62Zm0-92.43a40.14,40.14,0,0,0-1.15,80.26l1.18,0a40.14,40.14,0,0,0,1.15-80.26Z" fill="#fff"/><path d="M124.81,209.61a8.32,8.32,0,0,1-5.69-14.4l42.06-39.36A8.33,8.33,0,0,1,172.56,168L130.5,207.37A8.31,8.31,0,0,1,124.81,209.61Z" fill="#fff"/></svg>
